web/packages/design/src/ResourceIcon/assets/pagerduty.svg

<svg width="72" height="72" viewBox="0 0 72 72" fill="none" xmlns="http://www.w3.org/2000/svg">
<path d="M22.5266 52.6787H12V71.818H22.5266V52.6787Z" fill="#06AC38"/>
<path d="M51.6456 3.50886C45.9949 0.501266 42.0759 0 32.8253 0H12V43.5646H22.5266H23.8937H32.7342C40.9823 43.5646 47.1342 43.0633 52.557 39.4633C58.481 35.5443 61.5342 29.0278 61.5342 21.5089C61.5342 13.3519 57.7519 6.83544 51.6456 3.50886ZM35.1494 34.4506H22.5266V9.34177L34.4203 9.25063C45.2658 9.11392 50.6886 12.9418 50.6886 21.6C50.6886 30.8962 43.9899 34.4506 35.1494 34.4506Z" fill="#06AC38"/>
</svg>

<svg xmlns="http://www.w3.org/2000/svg" width="72" height="72" fill="none" viewBox="0 0 72 72"><path fill="#06ac38" d="M22.527 52.679H12v19.139h10.527zm29.119-49.17C45.995.5 42.076 0 32.826 0H12v43.565h20.734c8.248 0 14.4-.502 19.823-4.102 5.924-3.919 8.977-10.435 8.977-17.954 0-8.157-3.782-14.674-9.888-18M35.149 34.45H22.527V9.34l11.893-.09c10.846-.136 16.27 3.69 16.27 12.35 0 9.296-6.7 12.85-15.54 12.85"/></svg>
